X: 3361
M: C
L: 1/8
K: Bb
(3(de=e) !segno!|\
g>fd>B F>de>d | d>c=E>d c2c>B |\
g>fd>B F>de>d |
d>c=E>d c2c>_B |\
|: A>B |\
c>dc>B A>cf>a | g>AB>e d2c2 |\
d>c=B>d c>A_B>=B |\
c>dc>B A>cf>a | g>AB>e d2c2 |\
c>bg>e c>^cd>e |[1 f2a2f2 :|[2 g>ff>=e f>d_e>=e !segno!|]


